icons/modern/drop-of-blood.svg

<svg width="32" height="32" viewBox="0 0 32 32" fill="none" xmlns="http://www.w3.org/2000/svg">
<path d="M7.28271 14.9391L13.8999 3.32349C14.3385 2.55356 15.1565 2.07812 16.0426 2.07812C16.9332 2.07812 17.7548 2.55838 18.1917 3.3345L24.9297 15.3047L24.9186 15.3046C25.6492 16.6988 26.0625 18.2855 26.0625 19.9688C26.0625 25.5261 21.5574 30.0312 16 30.0312C10.4426 30.0312 5.9375 25.5261 5.9375 19.9688C5.9375 18.2275 6.37976 16.5896 7.15808 15.1612H7.15625L7.21875 15.0514C7.23987 15.0138 7.26111 14.9763 7.28271 14.9391Z" fill="url(#paint0_linear_18_25275)"/>
<path d="M7.28271 14.9391L13.8999 3.32349C14.3385 2.55356 15.1565 2.07812 16.0426 2.07812C16.9332 2.07812 17.7548 2.55838 18.1917 3.3345L24.9297 15.3047L24.9186 15.3046C25.6492 16.6988 26.0625 18.2855 26.0625 19.9688C26.0625 25.5261 21.5574 30.0312 16 30.0312C10.4426 30.0312 5.9375 25.5261 5.9375 19.9688C5.9375 18.2275 6.37976 16.5896 7.15808 15.1612H7.15625L7.21875 15.0514C7.23987 15.0138 7.26111 14.9763 7.28271 14.9391Z" fill="url(#paint1_radial_18_25275)"/>
<path d="M7.28271 14.9391L13.8999 3.32349C14.3385 2.55356 15.1565 2.07812 16.0426 2.07812C16.9332 2.07812 17.7548 2.55838 18.1917 3.3345L24.9297 15.3047L24.9186 15.3046C25.6492 16.6988 26.0625 18.2855 26.0625 19.9688C26.0625 25.5261 21.5574 30.0312 16 30.0312C10.4426 30.0312 5.9375 25.5261 5.9375 19.9688C5.9375 18.2275 6.37976 16.5896 7.15808 15.1612H7.15625L7.21875 15.0514C7.23987 15.0138 7.26111 14.9763 7.28271 14.9391Z" fill="url(#paint2_radial_18_25275)"/>
<path d="M7.28271 14.9391L13.8999 3.32349C14.3385 2.55356 15.1565 2.07812 16.0426 2.07812C16.9332 2.07812 17.7548 2.55838 18.1917 3.3345L24.9297 15.3047L24.9186 15.3046C25.6492 16.6988 26.0625 18.2855 26.0625 19.9688C26.0625 25.5261 21.5574 30.0312 16 30.0312C10.4426 30.0312 5.9375 25.5261 5.9375 19.9688C5.9375 18.2275 6.37976 16.5896 7.15808 15.1612H7.15625L7.21875 15.0514C7.23987 15.0138 7.26111 14.9763 7.28271 14.9391Z" fill="url(#paint3_radial_18_25275)"/>
<path d="M7.28271 14.9391L13.8999 3.32349C14.3385 2.55356 15.1565 2.07812 16.0426 2.07812C16.9332 2.07812 17.7548 2.55838 18.1917 3.3345L24.9297 15.3047L24.9186 15.3046C25.6492 16.6988 26.0625 18.2855 26.0625 19.9688C26.0625 25.5261 21.5574 30.0312 16 30.0312C10.4426 30.0312 5.9375 25.5261 5.9375 19.9688C5.9375 18.2275 6.37976 16.5896 7.15808 15.1612H7.15625L7.21875 15.0514C7.23987 15.0138 7.26111 14.9763 7.28271 14.9391Z" fill="url(#paint4_linear_18_25275)"/>
<defs>
<linearGradient id="paint0_linear_18_25275" x1="16" y1="8.75" x2="16" y2="29.25" gradientUnits="userSpaceOnUse">
<stop stop-color="#FF2A85"/>
<stop offset="1" stop-color="#FF1F5D"/>
</linearGradient>
<radialGradient id="paint1_radial_18_25275" cx="0" cy="0" r="1" gradientUnits="userSpaceOnUse" gradientTransform="translate(16 12.7666) rotate(90) scale(17.2646 15.1956)">
<stop offset="0.901181" stop-color="#FF5AB2" stop-opacity="0"/>
<stop offset="1" stop-color="#FF5AB2"/>
</radialGradient>
<radialGradient id="paint2_radial_18_25275" cx="0" cy="0" r="1" gradientUnits="userSpaceOnUse" gradientTransform="translate(23.3775 18.1989) rotate(143.778) scale(10.264 6.44179)">
<stop stop-color="#FF6B8D"/>
<stop offset="1" stop-color="#FF6B8D" stop-opacity="0"/>
</radialGradient>
<radialGradient id="paint3_radial_18_25275" cx="0" cy="0" r="1" gradientUnits="userSpaceOnUse" gradientTransform="translate(20.2657 3.9589) rotate(61.9275) scale(15.2421 7.51844)">
<stop stop-color="#FF60AB"/>
<stop offset="1" stop-color="#FF60AB" stop-opacity="0"/>
</radialGradient>
<linearGradient id="paint4_linear_18_25275" x1="9.3125" y1="10.75" x2="16" y2="13" gradientUnits="userSpaceOnUse">
<stop offset="0.0317317" stop-color="#AF4963"/>
<stop offset="1" stop-color="#E5254F" stop-opacity="0"/>
</linearGradient>
</defs>
</svg>

<svg width="32" height="32" fill="none" xmlns="http://www.w3.org/2000/svg"><path d="M7.283 14.94 13.9 3.322a2.466 2.466 0 0 1 4.292.011l6.738 11.97h-.011a10.02 10.02 0 0 1 1.143 4.665c0 5.557-4.505 10.062-10.062 10.062-5.557 0-10.063-4.505-10.063-10.062 0-1.742.443-3.38 1.221-4.808h-.002l.063-.11.064-.112Z" fill="url(#a)"/><path d="M7.283 14.94 13.9 3.322a2.466 2.466 0 0 1 4.292.011l6.738 11.97h-.011a10.02 10.02 0 0 1 1.143 4.665c0 5.557-4.505 10.062-10.062 10.062-5.557 0-10.063-4.505-10.063-10.062 0-1.742.443-3.38 1.221-4.808h-.002l.063-.11.064-.112Z" fill="url(#b)"/><path d="M7.283 14.94 13.9 3.322a2.466 2.466 0 0 1 4.292.011l6.738 11.97h-.011a10.02 10.02 0 0 1 1.143 4.665c0 5.557-4.505 10.062-10.062 10.062-5.557 0-10.063-4.505-10.063-10.062 0-1.742.443-3.38 1.221-4.808h-.002l.063-.11.064-.112Z" fill="url(#c)"/><path d="M7.283 14.94 13.9 3.322a2.466 2.466 0 0 1 4.292.011l6.738 11.97h-.011a10.02 10.02 0 0 1 1.143 4.665c0 5.557-4.505 10.062-10.062 10.062-5.557 0-10.063-4.505-10.063-10.062 0-1.742.443-3.38 1.221-4.808h-.002l.063-.11.064-.112Z" fill="url(#d)"/><path d="M7.283 14.94 13.9 3.322a2.466 2.466 0 0 1 4.292.011l6.738 11.97h-.011a10.02 10.02 0 0 1 1.143 4.665c0 5.557-4.505 10.062-10.062 10.062-5.557 0-10.063-4.505-10.063-10.062 0-1.742.443-3.38 1.221-4.808h-.002l.063-.11.064-.112Z" fill="url(#e)"/><defs><radialGradient id="b" cx="0" cy="0" r="1" gradientUnits="userSpaceOnUse" gradientTransform="matrix(0 17.2646 -15.1956 0 16 12.767)"><stop offset=".901" stop-color="#FF5AB2" stop-opacity="0"/><stop offset="1" stop-color="#FF5AB2"/></radialGradient><radialGradient id="c" cx="0" cy="0" r="1" gradientUnits="userSpaceOnUse" gradientTransform="matrix(-8.28031 6.06516 -3.80655 -5.1968 23.378 18.199)"><stop stop-color="#FF6B8D"/><stop offset="1" stop-color="#FF6B8D" stop-opacity="0"/></radialGradient><radialGradient id="d" cx="0" cy="0" r="1" gradientUnits="userSpaceOnUse" gradientTransform="rotate(61.928 6.834 18.868) scale(15.2421 7.51844)"><stop stop-color="#FF60AB"/><stop offset="1" stop-color="#FF60AB" stop-opacity="0"/></radialGradient><linearGradient id="a" x1="16" y1="8.75" x2="16" y2="29.25" gradientUnits="userSpaceOnUse"><stop stop-color="#FF2A85"/><stop offset="1" stop-color="#FF1F5D"/></linearGradient><linearGradient id="e" x1="9.313" y1="10.75" x2="16" y2="13" gradientUnits="userSpaceOnUse"><stop offset=".032" stop-color="#AF4963"/><stop offset="1" stop-color="#E5254F" stop-opacity="0"/></linearGradient></defs></svg>
